X: 132
T: Oranges and Lemons
M:4/4
L:1/8
Q:160
S:Playford
O:Manuscript
A:English
K:D
d2 e2 afed|e3 d B3 A|d3 f afed|e3 f d4|d2 e2 afed|e3 d B3 A|d3 f afed|e3 f d2:|
|: ga|b6 fg|a4 fe|d3 f afed|e3 d B3 A|d3 f afed|e3 f d2 ga|b6 fg|a6 fe|d3 f afed| e3 d B3 A| d3 f afed|e3 f d4:|

